icons/speech-bubble-list.svg

<svg xmlns="http://www.w3.org/2000/svg" width="24" height="24" viewBox="0 0 24 24">
  <path d="M15,3 C19.5522847,3 23,6.44771525 23,11 C23,15.5522847 19.5522847,19 15,19 L15,19 L14.492,19 L14.4215793,19.0906275 C13.7103901,19.9663638 12.948642,20.6393906 11.8907103,21.256749 L11.8907103,21.256749 L11.5946555,21.4238497 L11.2369286,21.6140163 L10.9086251,21.7821926 C9.57755795,22.4597178 8,21.4937799 8,20 L8,20 L8,19 C4.27285013,19 1,15.3634999 1,11 C1,6.5377729 4.49099359,3 9,3 L9,3 Z M15,12 L9,12 L8.88337887,12.0067277 C8.38604019,12.0644928 8,12.4871642 8,13 C8,13.5522847 8.44771525,14 9,14 L9,14 L15,14 L15.1166211,13.9932723 C15.6139598,13.9355072 16,13.5128358 16,13 C16,12.4477153 15.5522847,12 15,12 L15,12 Z M15,8 L9,8 L8.88337887,8.00672773 C8.38604019,8.06449284 8,8.48716416 8,9 C8,9.55228475 8.44771525,10 9,10 L9,10 L15,10 L15.1166211,9.99327227 C15.6139598,9.93550716 16,9.51283584 16,9 C16,8.44771525 15.5522847,8 15,8 L15,8 Z"/>
</svg>

<svg xmlns="http://www.w3.org/2000/svg" viewBox="0 0 24 24">
  <path d="M15 3c4.55 0 8 3.45 8 8s-3.45 8-8 8h-.5l-.08.1a8.85 8.85 0 0 1-2.53 2.16l-.3.16-.35.2-.33.16A2 2 0 0 1 8 20v-1c-3.73 0-7-3.64-7-8 0-4.46 3.5-8 8-8zm0 9H8.88A1 1 0 0 0 9 14h6.12a1 1 0 0 0-.12-2zm0-4H8.88A1 1 0 0 0 9 10h6.12A1 1 0 0 0 15 8z"/>
</svg>
